src/com/lilithsthrone/res/weapons/rangedFeather1.svg

<?xml version="1.0" encoding="UTF-8" standalone="no"?>
<!-- Created with Inkscape (http://www.inkscape.org/) -->

<svg
   xmlns:dc="http://purl.org/dc/elements/1.1/"
   xmlns:cc="http://creativecommons.org/ns#"
   xmlns:rdf="http://www.w3.org/1999/02/22-rdf-syntax-ns#"
   xmlns:svg="http://www.w3.org/2000/svg"
   xmlns="http://www.w3.org/2000/svg"
   xmlns:sodipodi="http://sodipodi.sourceforge.net/DTD/sodipodi-0.dtd"
   xmlns:inkscape="http://www.inkscape.org/namespaces/inkscape"
   viewBox="0 0 256 256"
   id="svg2"
   version="1.1"
   inkscape:version="0.91 r13725"
   sodipodi:docname="rangedFeather1Icon.svg">
  <style
     id="style3">
    svg { cursor: default;}
  </style>
  <defs
     id="defs4">
    <inkscape:path-effect
       cusp_linecap_type="round"
       end_linecap_type="zerowidth"
       miter_limit="4"
       linejoin_type="round"
       start_linecap_type="zerowidth"
       interpolator_beta="0.2"
       interpolator_type="Linear"
       sort_points="true"
       offset_points="0.55068825,3.1286392"
       is_visible="true"
       id="path-effect4231"
       effect="powerstroke" />
    <inkscape:path-effect
       cusp_linecap_type="round"
       end_linecap_type="zerowidth"
       miter_limit="4"
       linejoin_type="round"
       start_linecap_type="zerowidth"
       interpolator_beta="0.2"
       interpolator_type="Linear"
       sort_points="true"
       offset_points="0.55068825,3.1286392"
       is_visible="true"
       id="path-effect4227"
       effect="powerstroke" />
    <inkscape:path-effect
       cusp_linecap_type="round"
       end_linecap_type="zerowidth"
       miter_limit="4"
       linejoin_type="round"
       start_linecap_type="zerowidth"
       interpolator_beta="0.2"
       interpolator_type="Linear"
       sort_points="true"
       offset_points="0.55068825,1.9422124"
       is_visible="true"
       id="path-effect4219"
       effect="powerstroke" />
    <inkscape:path-effect
       cusp_linecap_type="round"
       end_linecap_type="zerowidth"
       miter_limit="4"
       linejoin_type="round"
       start_linecap_type="zerowidth"
       interpolator_beta="0.2"
       interpolator_type="Linear"
       sort_points="true"
       offset_points="0.55068825,3.1286392"
       is_visible="true"
       id="path-effect4215"
       effect="powerstroke" />
    <inkscape:path-effect
       cusp_linecap_type="round"
       end_linecap_type="zerowidth"
       miter_limit="4"
       linejoin_type="round"
       start_linecap_type="zerowidth"
       interpolator_beta="0.2"
       interpolator_type="Linear"
       sort_points="true"
       offset_points="0.55068825,1.9422124"
       is_visible="true"
       id="path-effect4211"
       effect="powerstroke" />
    <inkscape:path-effect
       cusp_linecap_type="round"
       end_linecap_type="zerowidth"
       miter_limit="4"
       linejoin_type="round"
       start_linecap_type="zerowidth"
       interpolator_beta="0.2"
       interpolator_type="Linear"
       sort_points="true"
       offset_points="0.55068825,3.1286392"
       is_visible="true"
       id="path-effect4207"
       effect="powerstroke" />
    <inkscape:path-effect
       cusp_linecap_type="round"
       end_linecap_type="zerowidth"
       miter_limit="4"
       linejoin_type="round"
       start_linecap_type="zerowidth"
       interpolator_beta="0.2"
       interpolator_type="Linear"
       sort_points="true"
       offset_points="0.55068825,1.338671"
       is_visible="true"
       id="path-effect4200-5-4"
       effect="powerstroke" />
    <inkscape:path-effect
       effect="powerstroke"
       id="path-effect4687"
       is_visible="true"
       offset_points="0.55068825,1.9422124"
       sort_points="true"
       interpolator_type="Linear"
       interpolator_beta="0.2"
       start_linecap_type="zerowidth"
       linejoin_type="round"
       miter_limit="4"
       end_linecap_type="zerowidth"
       cusp_linecap_type="round" />
    <inkscape:path-effect
       effect="powerstroke"
       id="path-effect4683"
       is_visible="true"
       offset_points="0.55068825,3.1286392"
       sort_points="true"
       interpolator_type="Linear"
       interpolator_beta="0.2"
       start_linecap_type="zerowidth"
       linejoin_type="round"
       miter_limit="4"
       end_linecap_type="zerowidth"
       cusp_linecap_type="round" />
    <inkscape:path-effect
       cusp_linecap_type="round"
       end_linecap_type="zerowidth"
       miter_limit="4"
       linejoin_type="round"
       start_linecap_type="zerowidth"
       interpolator_beta="0.2"
       interpolator_type="Linear"
       sort_points="true"
       offset_points="0.55068825,1.4540937"
       is_visible="true"
       id="path-effect4434-5-1"
       effect="powerstroke" />
    <inkscape:path-effect
       effect="powerstroke"
       id="path-effect4651"
       is_visible="true"
       offset_points="0.55068825,1.9422124"
       sort_points="true"
       interpolator_type="Linear"
       interpolator_beta="0.2"
       start_linecap_type="zerowidth"
       linejoin_type="round"
       miter_limit="4"
       end_linecap_type="zerowidth"
       cusp_linecap_type="round" />
    <inkscape:path-effect
       effect="powerstroke"
       id="path-effect4647"
       is_visible="true"
       offset_points="0.55068825,3.1286392"
       sort_points="true"
       interpolator_type="Linear"
       interpolator_beta="0.2"
       start_linecap_type="zerowidth"
       linejoin_type="round"
       miter_limit="4"
       end_linecap_type="zerowidth"
       cusp_linecap_type="round" />
  </defs>
  <sodipodi:namedview
     id="base"
     pagecolor="#ffffff"
     bordercolor="#666666"
     borderopacity="1.0"
     inkscape:pageopacity="0.0"
     inkscape:pageshadow="2"
     inkscape:zoom="1.4"
     inkscape:cx="-93.777792"
     inkscape:cy="155.18338"
     inkscape:document-units="px"
     inkscape:current-layer="layer1"
     showgrid="false"
     units="px"
     inkscape:window-width="2560"
     inkscape:window-height="1388"
     inkscape:window-x="-8"
     inkscape:window-y="-8"
     inkscape:window-maximized="1"
     showguides="false" />
  <metadata
     id="metadata7">
    <rdf:RDF>
      <cc:Work
         rdf:about="">
        <dc:format>image/svg+xml</dc:format>
        <dc:type
           rdf:resource="http://purl.org/dc/dcmitype/StillImage" />
        <dc:title />
      </cc:Work>
    </rdf:RDF>
  </metadata>
  <g
     inkscape:groupmode="layer"
     id="layer1"
     inkscape:label="Layer 1"
     style="display:inline">
    <path
       sodipodi:nodetypes="cccccccccccccccccccccc"
       inkscape:connector-curvature="0"
       id="path4140"
       d="m 94.772125,129.39526 -0.01571,22.63838 2.170488,-25.95229 c 4.528757,-8.54401 15.288707,-19.11028 26.989267,-29.022342 l 0.5574,11.452932 8.49319,-18.866774 c 11.94331,-9.489231 23.47008,-17.617152 29.14473,-21.633948 l -5.61216,19.075565 9.40645,-20.624647 c 10.80686,-7.087786 42.97374,-16.468135 63.96513,-44.262922 1.60022,31.918409 -36.06852,74.668418 -42.78418,91.347976 l -24.86732,6.91109 24.23307,-3.94985 c -2.84766,9.15645 -6.66687,17.54436 -11.43899,25.37308 l -8.6966,2.85377 3.96572,4.29803 c -6.05364,8.46643 -13.3139,16.30344 -21.75399,23.81204 l -27.09916,8.36983 24.62957,-5.33611 c -20.18063,17.18451 -39.00652,28.18484 -62.270105,26.65163 0,0 -0.853052,-0.87236 -1.630569,-1.46306 -5.153143,-35.12664 3.022797,-60.30605 12.613769,-71.67238 z"
       style="display:inline;fill:#ffaaaa;fill-rule:evenodd;stroke:#000000;stroke-width:1px;stroke-linecap:butt;stroke-linejoin:miter;stroke-opacity:1" />
    <path
       sodipodi:nodetypes="ccccccccccccc"
       inkscape:connector-curvature="0"
       id="path4142"
       d="M 84.107143,202.25 134.10714,125.10714 C 166.20535,91.256604 215.45194,58.660826 229.64286,23.5 c 0.92355,33.465235 -28.15861,59.656358 -42.32143,89.46429 l -24.82143,7.5 23.75,-3.75 c -2.49822,8.8178 -6.09241,16.99808 -10.96821,24.91929 l -8.95667,2.92821 4.00629,4.43106 c -5.75949,7.885 -12.88926,15.62593 -21.58141,23.61429 L 122.23214,181 145.53571,176.35714 C 124.68478,193.91538 105.83333,203.17262 84.107143,202.25 Z"
       style="display:inline;fill:#000000;fill-opacity:0.17757012;fill-rule:evenodd;stroke:none;stroke-width:1px;stroke-linecap:butt;stroke-linejoin:miter;stroke-opacity:1" />
    <path
       sodipodi:nodetypes="cscsc"
       inkscape:connector-curvature="0"
       id="path4144"
       d="M 203.8544,60.562225 C 183.02655,80.230876 154.68354,100.00425 134.23774,123.15403 105.20371,156.02786 98.278673,188.85841 49.373973,242.42481 99.022425,192.09753 109.07831,157.61541 136.68401,124.31197 155.78218,101.27201 186.75325,80.026463 203.8544,60.562225 Z"
       style="display:inline;fill:#4d4d4d;fill-rule:evenodd;stroke:#000000;stroke-width:1px;stroke-linecap:butt;stroke-linejoin:miter;stroke-opacity:1" />
    <path
       sodipodi:nodetypes="cc"
       inkscape:connector-curvature="0"
       inkscape:original-d="M 233.29672,50.949679 C 231.11227,135.11996 198.46597,216.92249 121.40507,254.56439"
       inkscape:path-effect="#path-effect4227"
       id="path4225"
       d="m 233.29672,50.949679 c -2.24928,46.402948 -13.742,91.441001 -36.36234,128.348581 -16.75752,30.9647 -41.37779,57.42402 -75.52931,75.26613 35.10138,-15.98467 61.78859,-41.17987 80.94934,-72.12086 21.40046,-38.96332 30.78216,-85.194899 30.94231,-131.493851 z"
       style="display:inline;fill:#ff8080;fill-rule:evenodd;stroke:none;stroke-width:1px;stroke-linecap:butt;stroke-linejoin:miter;stroke-opacity:1" />
    <path
       sodipodi:nodetypes="cc"
       inkscape:connector-curvature="0"
       inkscape:original-d="m 29.41827,219.93559 c 1.404374,-84.18692 33.291221,-166.288455 110,-204.642844"
       inkscape:path-effect="#path-effect4231"
       id="path4229"
       d="M 29.41827,219.93559 C 31.237451,173.51379 42.312319,128.37117 64.589674,91.255557 81.059533,60.136896 105.43356,33.450562 139.41827,15.292746 104.46652,31.602006 78.013937,57.043426 59.140729,88.160649 38.102253,127.3206 29.14937,173.63714 29.41827,219.93559 Z"
       style="display:inline;fill:#ff8080;fill-rule:evenodd;stroke:none;stroke-width:1px;stroke-linecap:butt;stroke-linejoin:miter;stroke-opacity:1" />
  </g>
</svg>

<svg xmlns="http://www.w3.org/2000/svg" cursor="default" viewBox="0 0 256 256">
    <g fill-rule="evenodd">
        <path fill="#faa" stroke="#000" d="M94.772 129.395l-.016 22.639 2.17-25.953c4.53-8.544 15.29-19.11 26.99-29.022l.558 11.453 8.493-18.867c11.943-9.49 23.47-17.617 29.144-21.634L156.5 87.087l9.407-20.625c10.807-7.088 42.974-16.468 63.965-44.263 1.6 31.919-36.069 74.669-42.784 91.348l-24.868 6.911 24.233-3.95c-2.847 9.157-6.666 17.545-11.439 25.374l-8.696 2.853 3.966 4.298c-6.054 8.467-13.314 16.304-21.754 23.812l-27.1 8.37 24.63-5.336c-20.18 17.185-39.006 28.185-62.27 26.652 0 0-.853-.873-1.63-1.463-5.154-35.127 3.022-60.306 12.613-71.673z"/>
        <path fill-opacity=".178" d="M84.107 202.25l50-77.143c32.098-33.85 81.345-66.446 95.536-101.607.923 33.465-28.159 59.656-42.322 89.464l-24.821 7.5 23.75-3.75c-2.498 8.818-6.092 16.998-10.968 24.92l-8.957 2.928 4.006 4.43c-5.76 7.886-12.889 15.627-21.581 23.615L122.232 181l23.304-4.643c-20.851 17.558-39.703 26.816-61.429 25.893z"/>
        <path fill="#4d4d4d" stroke="#000" d="M203.854 60.562c-20.827 19.669-49.17 39.442-69.616 62.592-29.034 32.874-35.96 65.704-84.864 119.27 49.648-50.326 59.704-84.809 87.31-118.112 19.098-23.04 50.07-44.286 67.17-63.75z"/>
        <path fill="#ff8080" d="M233.297 50.95c-2.25 46.403-13.742 91.44-36.363 128.348-16.757 30.965-41.377 57.424-75.529 75.266 35.101-15.984 61.789-41.18 80.95-72.12 21.4-38.964 30.782-85.195 30.942-131.494zM29.418 219.936c1.82-46.422 12.894-91.565 35.172-128.68 16.47-31.12 40.844-57.805 74.828-75.963-34.951 16.309-61.404 41.75-80.277 72.868-21.039 39.16-29.992 85.476-29.723 131.775z"/>
    </g>
</svg>
